X:3178
T:June McCormack's #1
O:england
M:2/2
L:1/8
R:Reel
K:Emin
~E2GA BE~E2|c2BA BE~E2|~D3F AD~D2|ABBA AGFD|
~E2GA Beed|edBA G3A|BAGB ADFA|GEED E4:|
|:edBA (3Bcd ef|gfed ed (3Bcd|edef ~g3d|fedf e3f|
g2fg edBA|ABFA G3A|BAGB ADFA|GEED E4:||


